X: 08016
T: BONNIE'S JIG
C: Bob McQuillen 3 Oct 90
B: Bob's Note Book 8 #16
%R: jig
Z: 2021 John Chambers <jc:trillian.mit.edu>
M: 6/8
L: 1/8
K: Bm	% and D
F \
| B2B Bcd | cde e2g | fgf efd | BAF Adc |\
| BFB Bcd | cde ede | faf edc | dBB B2 :|
K: D
|: A \
| d2d cBA | Bcd A2A | d2d ede | fgf efg |\
| afd dcd | Bed cBA | dfa agf | edc d2 :|
%%begintext align
%% I met
%% Bonnie Harbin at the Blades' in Seattle.
%% She is a fiddle player, and besides that excellent
%% credential, she was awfully nice to me when
%% I was out there, all of which earned her this tune!
%%endtext

%%sep 1 1 500

%%sep 1 1 500

